X: 87
T: Saddle the Pony
M: 6/8
R: jig
K:G
 "G"GBA G2B|def gdB|GBA G2B|"D"AFD AFD|
"G"GBA G2B| def gfg| "C"e/f/ge "D"dBA| "G"BGG G3 :|
|: "Em"e2e edB| def gfg| "Em"e2e edB| "D"dBA ABd|
      "Em"efe edB| def gfg| "C"e/f/ge "D7"dBA| "G"BGF G3 :|
